X:1
T:Title
%%score ( 1 2 ) { 3 | 4 }
L:1/8
Q:1/4=115
M:4/4
K:C
V:1 treble nm="Grand Piano, Unnamed-000"
V:2 treble 
V:3 treble nm="Choir Pad, St. Saviour"
V:4 bass 
V:1
 [Ec]2 [Gc]2 [GB]2 [Gc]2 | [FA]2 G2- G/ z/ F E2 | [EG]2 [FA]2 [Gc]2 [Gd]2 | [^Fd]2 [Gd]6 | %4
w: By~Frederick~G.~Baker,~1876 * * *||||
 [FG]2 [Ee]2- [Ee][Gd] [Gc]2 | [FA]2 [EG]2- [EG][DF] [CE]2 | [_EA]2 [=EG]2 [Ec]2 [Fd]2 | %7
w: |||
 [FB]2 [Ec]6- | [Ec]2 z2 z4 |] %9
w: ||
V:2
 x8 | z2 E2 D2 z2 | x8 | x8 | x8 | x8 | x8 | x8 | x8 |] %9
V:3
 G,2 E2 D2 C2 | C2 C2 B,2 C2 | C2 C2 C2[K:bass] B,2 | C2 B,6 | B,2 C2- CB,[K:treble] C2 | %5
 C2 C2- CB, C2 | C2 C2 C2 B,2 | D2 C6- | C2 z2 z4 |] %9
V:4
 C,2 C,2 F,2 E,2 | F,2 G,2 G,,2 C,2 | C,2 F,2 E,2 D,2 | D,2 G,6 | G,2 C,2- C,D, E,2 | %5
 F,2 G,2- G,^G, A,2 | ^F,2 G,2 G,2 G,,2 | G,,2 C,6- | C,2 z2 z4 |] %9

